src/svg/warning.svg

<svg xmlns="http://www.w3.org/2000/svg" width="1000" height="1000" viewBox="0 0 1000 1000"><path fill-rule="evenodd" clip-rule="evenodd" fill="#050505" d="M499.512 918.934c-231.103 0-418.476-187.323-418.476-418.426 0-231.102 187.373-418.485 418.476-418.485 231.092 0 418.436 187.384 418.436 418.485-.001 231.102-187.344 418.426-418.436 418.426zm0-769.033c-193.647 0-350.607 156.949-350.607 350.606 0 193.638 156.96 350.606 350.607 350.606s350.597-156.969 350.597-350.606c-.001-193.656-156.95-350.606-350.597-350.606zm.178 585.733c-28.173 0-50.948-23.463-50.948-50.81 0-27.367 22.775-53.379 50.948-53.379 28.134 0 50.899 26.012 50.899 53.379.001 27.347-22.765 50.81-50.899 50.81zm-.726-141.793c-27.536 0-49.854-21.67-49.854-48.479v-230.505c0-26.749 22.317-48.479 49.854-48.479 27.525 0 51.128 21.73 51.128 48.479v230.505c0 26.809-23.603 48.479-51.128 48.479z"/></svg>

<?xml version="1.0" encoding="utf-8"?>
<!-- Generator: Adobe Illustrator 16.0.0, SVG Export Plug-In . SVG Version: 6.00 Build 0)  -->
<!DOCTYPE svg PUBLIC "-//W3C//DTD SVG 1.1//EN" "http://www.w3.org/Graphics/SVG/1.1/DTD/svg11.dtd">
<svg version="1.1" id="Layer_1" xmlns="http://www.w3.org/2000/svg" xmlns:xlink="http://www.w3.org/1999/xlink" x="0px" y="0px"
	 width="1000px" height="1000px" viewBox="0 0 1000 1000" enable-background="new 0 0 1000 1000" xml:space="preserve">
<path fill-rule="evenodd" clip-rule="evenodd" fill="#050505" d="M499.512,918.934c-231.103,0-418.476-187.323-418.476-418.426
	c0-231.102,187.373-418.485,418.476-418.485c231.092,0,418.436,187.384,418.436,418.485
	C917.947,731.61,730.604,918.934,499.512,918.934L499.512,918.934z M499.512,149.901c-193.647,0-350.607,156.949-350.607,350.606
	c0,193.638,156.96,350.606,350.607,350.606s350.597-156.969,350.597-350.606C850.108,306.851,693.159,149.901,499.512,149.901
	L499.512,149.901z M499.69,735.634c-28.173,0-50.948-23.463-50.948-50.81c0-27.367,22.775-53.379,50.948-53.379
	c28.134,0,50.899,26.012,50.899,53.379C550.59,712.171,527.824,735.634,499.69,735.634L499.69,735.634z M498.964,593.841
	c-27.536,0-49.854-21.67-49.854-48.479V314.857c0-26.749,22.317-48.479,49.854-48.479c27.525,0,51.128,21.73,51.128,48.479v230.505
	C550.092,572.171,526.489,593.841,498.964,593.841L498.964,593.841z"/>
</svg>
